X:1
T:Put on the Whole Armor
T:Put on the Whole Armor
T:Finley Lyon
T:Palmer Hartsough, 1898
T:Public Domain Courtesy of the Cyber Hymnal™
C:Finley Lyon
Z:Public Domain
Z:Courtesy of the Cyber Hymnal™
%%score ( 1 2 ) ( 3 4 )
L:1/8
Q:1/4=85
M:6/8
K:Bb
V:1 treble 
V:2 treble 
V:3 bass 
V:4 bass 
V:1
 F | [DB]>[DB][DB] [DB][Fd][Ec] | [DB]>[FA][EG] [DF]2 [DF] | [DB]>[Ec][Fd] [Fe]2 [Fd] | %4
w: 1.~Put|on the whole ar- mor, the|ar- mor of God, And|fight the good fight of|
w: 2.~Put|on the whole ar- mor, the|ar- mor of God, For|pow- ers of hell op-|
w: 3.~Put|on the whole ar- mor, the|ar- mor of God, And|tak- ing His Word in|
w: 4.~Put|on the whole ar- mor, the|ar- mor of God, And|hard- ness thro’ all en-|
 [Fc]3- [Fc]2 [EF] | [DB]>[DB][DB] [DB][Fd][Ec] | [DB]>[Ec][Fd] [Ge]2 [EG] | %7
w: faith; * For|Je- sus is Cap- tain, and|you doth He call To|
w: pose, * And|dead- ly and dark at each|un- guard- ed step, Are|
w: hand, * Be|in- stant and ear- nest in|watch- ing and prayer, And,|
w: dure; * Look|up to the prize of your|call- ing so high, The|
 [DF]>[DF][DF] [FB]2 [EA] | [DB]3- [DB]2 z ||"^Refrain" cc>c cAF | c6 | [Fc][Fc]>[Fc] [Fc][FA]F | %12
w: stand in His name till|death. *||||
w: ly- ing in wait your|foes. *|Put on the ar- mor of|God,|Fight ye the good fight of|
w: hav- ing done all, to|stand. *||||
w: tri- umph at last so|sure. *||||
 [Fd]3- [Fd]2 [DF] x/ | [DB]2 [DB] [DB][DF][D_A] | [EG]3- [EG]2 [Ge] | [Fd]>[Fc][FB] [FA]2 [Ec] | %16
w: ||||
w: faith; * Go|forth for Je- sus your|Lord, * And|stand in His name till|
w: ||||
w: ||||
 [DB]3- [DB]2 |] %17
w: |
w: death. *|
w: |
w: |
V:2
 F | x6 | x6 | x6 | x6 | x6 | x6 | x6 | x6 || cc>c cAF | c6 | x5 F | x13/2 | x6 | x6 | x6 | x5 |] %17
V:3
 F, | [B,,F,]>[B,,F,][B,,F,] [B,,F,][B,,B,][B,,B,] | [B,,B,]>[B,,B,][B,,B,] [B,,B,]2 [B,,B,] | %3
w: ~|~ ~ ~ ~ ~ ~|~ ~ ~ ~ ~|
 D>DD [CE]2 D | [F,A,]3- [F,A,]2 [F,A,] | [B,,B,]>[B,,B,][B,,B,] [B,,B,][B,,F,][B,,A,] | %6
w: ~ ~ ~ ~ ~|~ * ~|~ ~ ~ ~ ~ ~|
 [B,,B,]>[B,,B,][B,,B,] [E,B,]2 [E,B,] | [F,B,]>[F,B,][F,B,] [F,D]2 [F,C] | [B,,B,]3- [B,,B,]2 z || %9
w: ~ ~ ~ ~ ~|~ ~ ~ ~ ~|~ *|
 CC>C CA,F, | C6 | [F,A,][F,A,]>[F,A,] [F,A,][F,A,][F,A,] | B,3/2-D,F, _B,2 [B,,B,] | %13
w: ~ ~ ~ ~ ~ ~|~|~ ~ ~ ~ ~ The|good fight of * faith|
 [B,,B,]2 [B,,B,] [B,,B,][B,,B,][B,,B,] | [E,B,]3- [E,B,]2 [E,B,] | %15
w: ||
 [F,B,]>[F,C][F,D] [F,E]2 [F,A,] | [B,,B,]3- [B,,B,]2 |] %17
w: ||
V:4
 F, | x6 | x6 | D>DD x D x | x6 | x6 | x6 | x6 | x6 || CC>C CA,F, | C6 | x6 | B,, x/ _B,2 x3 | x6 | %14
 x6 | x6 | x5 |] %17

